X:267
T:The Whining Puppy
M:4/4
L:1/8
R:reel
C:Kira Ott
K:D
fe|dBAF E2FE|DF~F2 ADFA|defd g2fg|afge fdec|
dBAF E2FE|DF~F2 ADFA|defd gfgb|1 afec d2:|
fg|a2ga fgef|edcd FADA|GB{d}BA Bcde|fdgf e2fg|
[1 a2ga fgef|edcd FADA|GB{d}BA Bcdf|edBc d2fg:|
[2 afge fdec|dBAF AFDF|DEFB ABdf|edBc d2||
